material/.icons/material/message-minus.svg

<?xml version="1.0" encoding="UTF-8"?><!DOCTYPE svg PUBLIC "-//W3C//DTD SVG 1.1//EN" "http://www.w3.org/Graphics/SVG/1.1/DTD/svg11.dtd"><svg xmlns="http://www.w3.org/2000/svg" xmlns:xlink="http://www.w3.org/1999/xlink" version="1.1" id="mdi-message-minus" width="24" height="24" viewBox="0 0 24 24"><path d="M20 2C21.11 2 22 2.9 22 4V16C22 17.11 21.11 18 20 18H6L2 22V4C2 2.89 2.9 2 4 2H20M8 9V11H16V9H8Z" /></svg>

<svg xmlns="http://www.w3.org/2000/svg" viewBox="0 0 24 24"><path d="M20 2a2 2 0 012 2v12c0 1.11-.89 2-2 2H6l-4 4V4a2 2 0 012-2h16M8 9v2h8V9H8z"/></svg>
